X:1
T:Title
%%score { 1 | 2 }
L:1/8
Q:1/4=100
M:4/4
K:Bb
V:1 treble nm="Grand Piano"
V:2 bass 
V:1
 [Fd][Fd][Ec][Ec] [DB]2 [DF]2 | [Fd][Fd][Ec][Ec] [DB]4 | [Fd][Fd][Ec][Ec] [DB]2 [Fd]2 | %3
w: W.~A.~Ogden * * * * *|||
 [Fc][Fc][=Ec][Ec] [Fc]4 | [Fd][Fd][Ec][Ec] [DB]2 [DF]2 | [Fd][Fd][Ec][Ec] [DB]4 | %6
w: |||
 [EG][FA][FB][Gc] [Fd]2 [Ec]2 | [DB]6 z2 | c2 c2 c3 B | d2 c2 [DB]4 | GGG[FA] [GB]2 [EG]2 | %11
w: |||||
 [DF]2 [FB]2 [Fc]4 | [Fd][Fd][Ec][Ec] [DB]2 [DF]2 | [Fd][Fd][Ec][Ec] [DB]2 [DF][DF] | %14
w: |||
 [EG][EG] z [FA] [FB][FB] z [Gc] | [Fd]2 [Ec]2 [DB]4 |] %16
w: ||
V:2
 [B,,F,][B,,F,][B,,G,][B,,A,] [B,,B,]2 [B,,B,]2 | [B,,F,][B,,F,][B,,G,][B,,A,] [B,,B,]4 | %2
 [B,,F,][B,,F,][B,,G,][B,,A,] [B,,B,]2 [B,,B,]2 | [C,A,][C,A,][C,G,][C,B,] [F,A,]4 | %4
 [B,,F,][B,,F,][B,,G,][B,,A,] [B,,B,]2 [B,,B,]2 | [B,,F,][B,,F,][B,,G,][B,,A,] [B,,B,]4 | %6
 [E,B,][E,C][D,B,][E,B,] [F,B,]2 [F,A,]2 | [B,,B,]6 z2 | [F,A,E]2 [F,A,E]2 [F,A,E]3 [F,B,D] | %9
 [F,B,F]2 [F,A,E]2 [B,,B,]4 | [E,B,E][E,B,E][E,B,E][E,B,] [E,B,]2 [E,B,]2 | %11
 [B,,B,]2 [D,B,]2 [F,A,]4 | [B,,F,][B,,F,][B,,G,][B,,A,] [B,,B,]2 [B,,B,]2 | %13
 [B,,F,][B,,F,][B,,G,][B,,A,] [B,,B,]2 [B,,B,][B,,B,] | %14
 [E,B,][E,B,] z [E,C] [D,B,][D,B,] z [E,B,] | [F,B,]2 [F,A,]2 [B,,B,]4 |] %16

